Catalina-light/actions/16/transform-affect-pattern.svg

<svg xmlns="http://www.w3.org/2000/svg" width="16" height="16" viewBox="0 0 16 16">
 <defs>
  <style id="current-color-scheme" type="text/css">
   .ColorScheme-Text { color:#5c616c; } .ColorScheme-Highlight { color:#5294e2; }
  </style>
 </defs>
 <path style="fill:currentColor" class="ColorScheme-Text" d="M 2.0585938 3.0019531 L 4.203125 4.6328125 L 2 6.3085938 L 2 6.3417969 L 4.1796875 8.0019531 L 4.2265625 8.0019531 L 6.40625 6.3417969 L 4.203125 4.6660156 L 6.3945312 3.0019531 L 2.0585938 3.0019531 z M 6.4648438 3.0019531 L 8.6113281 4.6328125 L 10.753906 3.0019531 L 6.4648438 3.0019531 z M 10.917969 3.0019531 L 13 4.5859375 L 13 3.0019531 L 10.917969 3.0019531 z M 8.65625 4.6660156 L 6.453125 6.3417969 L 8.6328125 8.0019531 L 10.835938 6.3261719 L 8.65625 4.6660156 z M 10.835938 6.3261719 L 13 7.9707031 L 13 4.6796875 L 10.835938 6.3261719 z M 11.007812 9.0136719 L 11.007812 11.007812 L 9.0058594 11.007812 L 9.0058594 12.003906 L 11.007812 12.003906 L 11.007812 14 L 14.011719 11.505859 L 11.007812 9.0136719 z M 4 10.992188 L 4 12.021484 L 5 12.021484 L 5 10.992188 L 4 10.992188 z M 6.0175781 10.992188 L 6.0175781 12.021484 L 6.5019531 12.021484 L 7.5039062 12.021484 L 7.9882812 12.021484 L 7.9882812 10.992188 L 7.5039062 10.992188 L 6.5019531 10.992188 L 6.0175781 10.992188 z"/>
</svg>

<svg width="16" height="16" viewBox="0 0 16 16" xmlns="http://www.w3.org/2000/svg">
<defs>
<style id="current-color-scheme" type="text/css">.ColorScheme-Text { color:#5c616c; } .ColorScheme-Highlight { color:#5294e2; }</style>
</defs>
<path class="ColorScheme-Text" d="m2.0586 3.002 2.1445 1.6309-2.2031 1.6758v0.033203l2.1797 1.6602h0.046875l2.1797-1.6602-2.2031-1.6758 2.1914-1.6641h-4.3359zm4.4062 0 2.1465 1.6309 2.1426-1.6309h-4.2891zm4.4531 0 2.082 1.584v-1.584h-2.082zm-2.2617 1.6641-2.2031 1.6758 2.1797 1.6602 2.2031-1.6758-2.1797-1.6602zm2.1797 1.6602 2.1641 1.6445v-3.291l-2.1641 1.6465zm0.17187 2.6875v1.9941h-2.002v0.99609h2.002v1.9961l3.0039-2.4941-3.0039-2.4922zm-7.0078 1.9785v1.0293h1v-1.0293h-1zm2.0176 0v1.0293h1.9708v-1.0293h-1.9708z" fill="currentColor"/>
</svg>
